X: 1
T: Maggie in the Wood(s)
C: Trad
R: Polka
L: 1/8
M: 2/4
K: G
Z: ABC transcription by Verge Roller
|: B/A/ | "G" GD G>A | "Em" Be e/f/g/e/ | "G" dB B/A/G/A/ | "D" BA A/c/B/A/ |
"G" GD G>A | "Em" Be e/f/g/e/ | "G" dB "D" AB/A/ | "G" G2-G :|
|: d | "G" g>f "Em" ed | "C" ef "G" g>e | "G" dB B/A/G/A/ | "D" BA A>d |
"G" g>f "Em" ed | "C" ef "G" g>e | "G" dB "D" AB/A/ | "G" G2-G :|
r: 32
